src/img/feat-3.svg

<svg width="33" height="33" viewBox="0 0 33 33" fill="none" xmlns="http://www.w3.org/2000/svg">
<rect y="17" width="16" height="16" rx="5" fill="#3ED9B0"/>
<g clip-path="url(#clip0)">
<path d="M20.4326 29.6197C20.1654 29.6197 19.9489 29.8362 19.9489 30.1033V30.2392C19.9489 31.2281 19.1444 32.0327 18.1555 32.0327H10.6724C9.6835 32.0327 8.87891 31.2281 8.87891 30.2392V22.7897C8.87891 22.5226 8.66243 22.3061 8.39527 22.3061C8.1281 22.3061 7.91162 22.5226 7.91162 22.7897V30.2392C7.91162 31.7615 9.15007 33 10.6724 33H18.1555C19.6778 33 20.9163 31.7615 20.9163 30.2392V30.1033C20.9162 29.8362 20.6997 29.6197 20.4326 29.6197Z" fill="#333333"/>
<path d="M27.7929 17.4377H25.0934C24.9652 17.4377 24.8422 17.4886 24.7515 17.5793L23.7204 18.6103C23.5008 18.8299 23.2087 18.9509 22.8981 18.9509H20.9164V18.3722C20.9164 17.4267 20.6276 16.49 20.1004 15.7067C20.2101 15.7152 20.3207 15.7209 20.4327 15.7209C20.6998 15.7209 20.9163 15.5045 20.9163 15.2373C20.9163 14.9701 20.6998 14.7537 20.4327 14.7537C18.6213 14.7537 17.1476 13.28 17.1476 11.4686V10.2389C17.1476 10.0571 17.0457 9.89065 16.8837 9.80798L14.4841 8.58449C14.3042 8.49279 14.0865 8.52239 13.9376 8.65871L12.8977 9.61123C12.72 9.77406 12.481 9.85125 12.2414 9.82262C12.002 9.79412 11.7876 9.66295 11.653 9.46292C11.4279 9.12817 11.4762 8.6827 11.7678 8.4038L13.2878 6.95055C13.6147 6.63798 14.0439 6.46587 14.4962 6.46587H18.2559C18.7006 6.46587 19.1273 6.65443 19.4268 6.98311L21.9632 9.76748C22.0549 9.86808 22.1847 9.92541 22.3207 9.92541H27.7928C28.06 9.92541 28.2765 9.70893 28.2765 9.44176C28.2765 9.1746 28.06 8.95812 27.7928 8.95812H22.5344L20.1419 6.33187C19.6596 5.80237 18.9721 5.49871 18.2559 5.49871H18.1288V4.74913L21.0959 3.81099C21.3927 3.71716 21.6202 3.48224 21.7046 3.18257C21.7889 2.88297 21.7173 2.56377 21.513 2.32897L20.7305 1.42901C19.9408 0.520852 18.7978 0 17.5943 0H17.4751C17.208 0 16.9915 0.216479 16.9915 0.483644C16.9915 0.750809 17.208 0.967288 17.4751 0.967288H17.5943C18.5176 0.967288 19.3948 1.36691 20.0006 2.06368L20.7365 2.91005L17.4994 3.93357C17.2983 3.99716 17.1616 4.18378 17.1616 4.39471V5.49871H14.4962C14.0059 5.49871 13.5334 5.62929 13.1198 5.87305L11.6457 3.04154C11.5624 2.88155 11.3971 2.78121 11.2167 2.78121H8.44874C8.39721 2.78121 8.3553 2.7393 8.3553 2.68777V1.06079C8.3553 1.00927 8.39721 0.967353 8.44874 0.967353H15.414C15.6812 0.967353 15.8976 0.750874 15.8976 0.483709C15.8976 0.216544 15.6812 6.44859e-05 15.414 6.44859e-05H8.4488C8.14843 6.44859e-05 7.87739 0.126134 7.68419 0.327459H6.50978C5.81675 0.327459 5.25288 0.891259 5.25288 1.58429V2.17298C5.25288 2.86601 5.81675 3.42987 6.50978 3.42987H7.69212C7.7363 3.47489 7.78466 3.51558 7.83612 3.5522V7.71457L7.7501 8.05964H6.43375C5.49064 8.05964 4.72339 8.82689 4.72339 9.77C4.72339 10.7131 5.49064 11.4804 6.43375 11.4804H8.84823C8.7593 11.6809 8.70952 11.9025 8.70952 12.1356C8.70952 12.579 8.88847 12.9813 9.17775 13.2745C8.88847 13.5676 8.70952 13.97 8.70952 14.4134C8.70952 14.8568 8.88847 15.2591 9.17775 15.5523C8.88847 15.8454 8.70952 16.2477 8.70952 16.6911C8.70952 17.2546 8.99835 17.7516 9.4355 18.0426L9.11275 18.3653C8.49671 18.9814 8.08633 19.7952 7.95716 20.6568C7.91757 20.921 8.09961 21.1672 8.36374 21.2068C8.38812 21.2105 8.41224 21.2122 8.4361 21.2122C8.67147 21.2122 8.87783 21.0401 8.91375 20.8002C9.01241 20.1418 9.32607 19.5199 9.79669 19.0493L10.5324 18.3137H12.1015C12.9962 18.3137 13.7241 17.5858 13.7241 16.6911C13.7241 16.2477 13.5451 15.8454 13.2558 15.5523C13.5451 15.2591 13.7241 14.8568 13.7241 14.4134C13.7241 13.97 13.5451 13.5676 13.2558 13.2745C13.325 13.2044 13.3879 13.1282 13.4435 13.0465H16.4851C16.8817 14.0353 17.6385 14.8422 18.5933 15.3022C18.5934 15.3023 18.5935 15.3024 18.5936 15.3026L19.1831 16.0843C19.677 16.7392 19.9491 17.5518 19.9491 18.3722V28.0421C19.9491 28.3093 20.1656 28.5258 20.4327 28.5258C20.6999 28.5258 20.9164 28.3093 20.9164 28.0421V19.9182H22.8981C23.4672 19.9182 24.0021 19.6966 24.4043 19.2942L25.2937 18.4049H27.7929C28.0601 18.4049 28.2765 18.1884 28.2765 17.9213C28.2765 17.6541 28.0601 17.4377 27.7929 17.4377ZM12.357 6.50243L11.0994 7.70484C10.9866 7.81266 10.8915 7.93228 10.8126 8.05964H10.2845C10.5563 7.5965 10.7016 7.06765 10.7016 6.51746V3.7485H10.9233L12.357 6.50243ZM8.78909 7.89094C8.79857 7.85264 8.80347 7.81337 8.80347 7.77397V3.7485H9.73439V6.51739C9.73439 7.06759 9.52204 7.58676 9.13648 7.97922L8.64149 8.48305L8.78909 7.89094ZM6.22017 2.17292V1.58422C6.22017 1.42456 6.35011 1.29468 6.50978 1.29468H7.38801V2.46252H6.50978C6.35011 2.46259 6.22017 2.33265 6.22017 2.17292ZM5.69061 9.77C5.69061 9.36025 6.02394 9.02693 6.43368 9.02693H7.51382C7.46933 9.3413 7.61784 9.64676 7.90099 9.80527C8.02139 9.87266 8.15172 9.90555 8.28062 9.90555C8.48111 9.90555 8.67824 9.82591 8.82875 9.67275L9.46316 9.02693H10.5457C10.5505 9.36496 10.6495 9.70422 10.8504 10.0029C10.9895 10.2098 11.1683 10.3822 11.3733 10.5131H6.43375C6.02394 10.5131 5.69061 10.1797 5.69061 9.77ZM12.1015 11.4804C12.4629 11.4804 12.7568 11.7743 12.7568 12.1356C12.7568 12.4968 12.4628 12.7908 12.1015 12.7908H10.332C9.97073 12.7908 9.67681 12.4968 9.67681 12.1356C9.67681 11.7743 9.9708 11.4804 10.332 11.4804H12.1015ZM12.7568 14.4134C12.7568 14.7747 12.4628 15.0687 12.1015 15.0687H10.332C9.97073 15.0687 9.67681 14.7747 9.67681 14.4134C9.67681 14.0522 9.9708 13.7582 10.332 13.7582H12.1015C12.4629 13.7582 12.7568 14.0521 12.7568 14.4134ZM12.1015 17.3464H10.332C9.97073 17.3464 9.67681 17.0525 9.67681 16.6912C9.67681 16.33 9.9708 16.036 10.332 16.036H12.1015C12.4629 16.036 12.7568 16.33 12.7568 16.6912C12.7568 17.0525 12.4629 17.3464 12.1015 17.3464ZM13.7226 12.0792C13.7024 11.4901 13.3669 10.9797 12.8796 10.7123C13.1261 10.6344 13.3558 10.5035 13.5511 10.3246L14.3435 9.59866L16.1802 10.5351V11.4686C16.1802 11.676 16.1959 11.8797 16.2247 12.0792H13.7226Z" fill="#333333"/>
</g>
<defs>
<clipPath id="clip0">
<rect width="33" height="33" fill="white"/>
</clipPath>
</defs>
</svg>

<svg width="33" height="33" viewBox="0 0 33 33" xmlns="http://www.w3.org/2000/svg" fill="none"><rect y="17" width="16" height="16" rx="5" fill="#3ED9B0"/><g clip-path="url(#a)" fill="#333"><path d="M20.433 29.62c-.267 0-.484.216-.484.484v.136c0 .989-.804 1.793-1.793 1.793h-7.483c-.989 0-1.793-.805-1.793-1.793v-7.45c0-.267-.216-.484-.484-.484-.267 0-.484.216-.484.484v7.45c0 1.522 1.238 2.761 2.761 2.761h7.483c1.522 0 2.761-1.238 2.761-2.761v-.136c0-.267-.217-.484-.484-.484zM27.793 17.438h-2.7c-.128 0-.251.051-.342.142l-1.031 1.031c-.22.22-.512.341-.822.341h-1.982v-.579c0-.945-.289-1.882-.816-2.665l.332.014c.267 0 .484-.216.484-.484 0-.267-.216-.484-.484-.484-1.811 0-3.285-1.474-3.285-3.285v-1.23c0-.182-.102-.348-.264-.431l-2.4-1.223c-.18-.092-.398-.062-.546.074l-1.04.953c-.178.163-.417.24-.656.211-.239-.029-.454-.16-.588-.36-.225-.335-.177-.78.115-1.059l1.52-1.453c.327-.313.756-.485 1.208-.485h3.76c.445 0 .871.189 1.171.517l2.536 2.784c.092.101.221.158.357.158h5.472c.267 0 .484-.216.484-.484 0-.267-.216-.484-.484-.484h-5.258l-2.393-2.626c-.482-.53-1.17-.833-1.886-.833h-.127v-.75l2.967-.938c.297-.094.524-.329.609-.628.084-.3.013-.619-.192-.854l-.783-.9c-.79-.908-1.933-1.429-3.136-1.429h-.119c-.267 0-.484.216-.484.484 0 .267.216.484.484.484h.119c.923 0 1.8.4 2.406 1.096l.736.846-3.237 1.024c-.201.064-.338.25-.338.461v1.104h-2.665c-.49 0-.963.131-1.376.374l-1.474-2.832c-.083-.16-.249-.26-.429-.26h-2.768c-.052 0-.093-.042-.093-.093v-1.627c0-.052.042-.093.093-.093h6.965c.267 0 .484-.216.484-.484 0-.267-.216-.484-.484-.484h-6.965c-.3 0-.571.126-.765.327h-1.174c-.693 0-1.257.564-1.257 1.257v.589c0 .693.564 1.257 1.257 1.257h1.182l.144.122v4.162l-.086.345h-1.316c-.943 0-1.71.767-1.71 1.71s.767 1.71 1.71 1.71h2.414c-.089.2-.139.422-.139.655 0 .443.179.846.468 1.139-.289.293-.468.696-.468 1.139 0 .443.179.846.468 1.139-.289.293-.468.695-.468 1.139 0 .564.289 1.061.726 1.352l-.323.323c-.616.616-1.026 1.43-1.156 2.291-.04.264.142.51.407.55l.072.005c.235 0 .442-.172.478-.412.099-.658.412-1.28.883-1.751l.736-.736h1.569c.895 0 1.623-.728 1.623-1.623 0-.443-.179-.846-.468-1.139.289-.293.468-.696.468-1.139 0-.443-.179-.846-.468-1.139l.188-.228h3.042c.397.989 1.153 1.796 2.108 2.256l.59.782c.494.655.766 1.468.766 2.288v9.67c0 .267.216.484.484.484.267 0 .484-.216.484-.484v-8.124h1.982c.569 0 1.104-.222 1.506-.624l.889-.889h2.499c.267 0 .484-.216.484-.484 0-.267-.216-.484-.484-.484zm-15.436-10.935l-1.258 1.202c-.113.108-.208.227-.287.355h-.528c.272-.463.417-.992.417-1.542v-2.769h.222l1.434 2.754zm-3.568 1.389l.014-.117v-4.025h.931v2.769c0 .55-.212 1.069-.598 1.462l-.495.504.148-.592zm-2.569-5.718v-.589c0-.16.13-.29.29-.29h.878v1.168h-.878c-.16 0-.29-.13-.29-.29zm-.53 7.597c0-.41.333-.743.743-.743h1.08c-.044.314.104.62.387.778.12.067.251.1.38.1.2 0 .398-.08.548-.233l.634-.646h1.083c.005.338.104.677.305.976.139.207.318.379.523.51h-4.94c-.41 0-.743-.333-.743-.743zm6.411 1.71c.361 0 .655.294.655.655 0 .361-.294.655-.655.655h-1.769c-.361 0-.655-.294-.655-.655 0-.361.294-.655.655-.655h1.769zm.655 2.933c0 .361-.294.655-.655.655h-1.769c-.361 0-.655-.294-.655-.655 0-.361.294-.655.655-.655h1.769c.361 0 .655.294.655.655zm-.655 2.933h-1.769c-.361 0-.655-.294-.655-.655 0-.361.294-.655.655-.655h1.769c.361 0 .655.294.655.655 0 .361-.294.655-.655.655zm1.621-5.267c-.02-.589-.356-1.1-.843-1.367.246-.078.476-.209.671-.388l.792-.726 1.837.936v.934c0 .207.016.411.044.611h-2.502z"/></g><defs><clipPath id="a"><path fill="#fff" d="M0 0h33v33h-33z"/></clipPath></defs></svg>
